local/share/icons/dracula-icons-main/scalable/apps/pycharm.svg

<?xml version="1.0" encoding="UTF-8"?>
<svg xmlns="http://www.w3.org/2000/svg" xmlns:xlink="http://www.w3.org/1999/xlink" width="64" height="64" viewBox="0 0 64 64">
<path fill-rule="nonzero" fill="rgb(48.235294%, 80.784314%, 45.490196%)" fill-opacity="1" d="M 15.609375 8.464844 C 15.609375 12.410156 12.410156 15.609375 8.464844 15.609375 C 4.519531 15.609375 1.324219 12.410156 1.324219 8.464844 C 1.324219 4.519531 4.519531 1.324219 8.464844 1.324219 C 12.410156 1.324219 15.609375 4.519531 15.609375 8.464844 Z M 15.609375 8.464844 "/>
<path fill-rule="nonzero" fill="rgb(18.823529%, 18.823529%, 18.823529%)" fill-opacity="1" d="M 5.820312 4.496094 L 11.113281 4.496094 C 11.84375 4.496094 12.433594 5.089844 12.433594 5.820312 L 12.433594 11.113281 C 12.433594 11.84375 11.84375 12.433594 11.113281 12.433594 L 5.820312 12.433594 C 5.089844 12.433594 4.496094 11.84375 4.496094 11.113281 L 4.496094 5.820312 C 4.496094 5.089844 5.089844 4.496094 5.820312 4.496094 Z M 5.820312 4.496094 "/>
<path fill-rule="nonzero" fill="rgb(97.647059%, 97.647059%, 97.647059%)" fill-opacity="1" d="M 5.359375 5.359375 L 6.703125 5.359375 C 7.507812 5.359375 7.84375 5.757812 7.84375 6.449219 L 7.84375 6.464844 C 7.84375 7.230469 7.351562 7.535156 6.601562 7.535156 L 5.980469 7.535156 L 5.980469 8.777344 L 5.359375 8.777344 Z M 6.601562 6.914062 C 6.976562 6.914062 7.222656 6.742188 7.222656 6.464844 L 7.222656 6.449219 C 7.222656 6.109375 6.976562 5.980469 6.601562 5.980469 L 5.980469 5.980469 L 5.980469 6.914062 Z M 8.464844 7.050781 C 8.464844 6.097656 8.992188 5.359375 10.019531 5.359375 C 10.65625 5.359375 10.992188 5.546875 11.308594 5.863281 L 10.902344 6.347656 C 10.640625 6.105469 10.355469 5.980469 10.019531 5.980469 C 9.457031 5.980469 9.085938 6.472656 9.085938 7.050781 L 9.085938 7.03125 C 9.085938 7.609375 9.441406 8.15625 10.019531 8.15625 C 10.394531 8.15625 10.691406 7.960938 10.953125 7.71875 L 11.378906 8.152344 C 11.039062 8.527344 10.65625 8.777344 10.019531 8.777344 C 9.027344 8.796875 8.464844 8.003906 8.464844 7.050781 "/>
<path fill-rule="nonzero" fill="rgb(97.647059%, 97.647059%, 97.647059%)" fill-opacity="1" d="M 5.050781 10.953125 L 8.15625 10.953125 L 8.15625 11.574219 L 5.050781 11.574219 Z M 5.050781 10.953125 "/>
</svg>

<svg width="64" height="64" version="1.1" viewBox="0 0 16.933 16.933" xmlns="http://www.w3.org/2000/svg">
 <path d="m15.61 8.4665a7.1436 7.1436 0 0 1-7.1436 7.1436 7.1436 7.1436 0 0 1-7.1436-7.1436 7.1436 7.1436 0 0 1 7.1436-7.1436 7.1436 7.1436 0 0 1 7.1436 7.1436z" fill="#7bce74" stroke-width=".26458"/>
 <rect x="4.4978" y="4.4978" width="7.9373" height="7.9373" rx="1.3229" ry="1.3229" fill="#303030" style="paint-order:markers stroke fill"/>
 <path d="m5.3606 5.3606h1.3435c0.8038 0 1.1413 0.39543 1.1413 1.0871v0.01553c0 0.76641-0.49465 1.0715-1.2424 1.0715h-0.62118v1.2424h-0.62118zm1.2424 1.553c0.37386 0 0.62118-0.16996 0.62118-0.45036v-0.01553c0-0.33647-0.24732-0.46589-0.62118-0.46589h-0.62118v0.93178zm1.8636 0.1368c0-0.95334 0.52484-1.6898 1.553-1.6898 0.63556 0 0.97111 0.18485 1.2889 0.50263l-0.40591 0.48626c-0.2617-0.24301-0.54651-0.36771-0.88299-0.36771-0.56079 0-0.93178 0.48909-0.93178 1.0686v-0.018695c0 0.57949 0.35229 1.1243 0.93178 1.1243 0.37386 0 0.67007-0.1935 0.93178-0.43651l0.42606 0.43382c-0.33647 0.37386-0.72228 0.62386-1.3578 0.62386-0.99073 0.018694-1.553-0.77341-1.553-1.7268" fill="#f9f9f9" stroke-width=".26458"/>
 <path d="m5.05 10.952h3.1059v0.62118h-3.1059z" fill="#f9f9f9" stroke-width=".26458"/>
</svg>
